X:1
T:Alma beata e bella
T:Alma beata e bella
T:Girolamo Scotto
T:Source : Madrigali a tre voci---Venetia---G.Scotto---1541. Editor : André Vierendeels (15/08/16).
T:Notes : Original clefs : C1, C3, F3 Editorial accidentals above the staff Original note values have been halved Text by Jacopo Sannazzaro (Arcadia) "Primi tono"
T:b
T:©
T:©
T:©
T:©
T:©
T:©
T:©
C:Girolamo Scotto
Z:©
%%score [ 1 [ 2 3 ] ]
L:1/8
Q:1/4=90
M:2/2
K:F
V:1 treble nm="Soprano" snm="S"
V:2 treble-8 nm="Tenor 1" snm="T 1"
V:3 treble-8 nm="Tenor 2" snm="T 2"
V:1
 B4 B2 B2 | A4 G4 | F2 D3 EFG | ABcA B2 G2- | GABc d2 e2- |"^b" ed d4 c2 | d4 z2 d2 | c2 c2 B2 B2 | %8
w: Al- ma be-|a- ta'e|bel- * * * *||||la, che|da le- ga- mi|
 A4 A4- | A4 z2 A2 | A2 A2 c2 c2 | B2 A2 B2 G2 | c2 c2 z2 A2 |"^b" G2 E2 F2 B2- | BA A4 G2 | %15
w: sciol- ta|_ nu-|da sa- li- sti|ne su- per- ni|chio- stri, o-|ve con la tua|_ _ stel- *|
 A2 B2 A4 | D2 d2 c2 A2 | c2 B4 G2- | G2 A4 A2 | B2 A2 c3 B | GABc d3 c | B2 A3 G G2- | %22
w: |la ti go- *|d'in- sie- me,|_ ac- col-|ta, ac- col- *|||
"^#" G2 F2 G3 A | B2 A4 d2 | d2 d2 A2 d2- | d2 cB A2 F2- | F2 B2 B2 B2 | A3 G AB c2- | cB B4 A2 | %29
w: |* ta et|lie- ta vai scher-|* nen- * * do|_ i pen- sier|no- * * * *||
 B8 | A2 G4 G2 | F2 _E3 D D2- | D2 C2 D4 | D4 z4 | z8 | z4 G4 | G2 G2 c4- | c2 B2 A2 G2- | %38
w: stri,|qua- si'un bel|_ sol _ _|_ ti no-|stri,||et|co i ve-|* sti- gi- i|
 GF F4 E2 | F4 z2 D2 | E2 F2 E2 D2 | A3 B c2 F2 | A2 B2 A2 d2- |"^#" d2 c2 d4- | d4 z4 | z4 z2 B2 | %46
w: _ _ san- *|ti, chal-|chi le stel- l'er-|ran- * * ti,|le stel- l'er- ran-|* * ti,|_|et|
 B2 B2 A2 F2 | G3 A B2 A2- | A2 c2 c2 c2 | B2 G2 A4 | G2 E2 E2 E2 | F2 G4 F2 | G2 B2 A2 A2- | %53
w: tra pa- re fon-|ta- * * ne|_ et sa- cri|mir- * *|ti pa- sci ce-|le- sti greg-|* * gi- i,|
 A2 c2 c2 c2 | B2 G2 d3 c | B2 A4 A2- | A2 G2 A4 | z2 A2 G2 A2 | A2 A2 c2 G2 | A2 B4 F2 | %60
w: _ et tuoi ca-|ri pa- sto- r'in-|di cor- reg|_ gi- i,|et tuoi ca-|ri pa- sto- r'in|di cor- reg-|
 E2 E2 G2 D2 | E2 F3 G A2- | A2 G4 F2 | G8 |] %64
w: gi- i, in- di|cor- reg- * *|* gi- *|i.|
V:2
 z8 | z8 | B4 B2 B2 | A4 G2 c2- | c2 B4 c2 |"^b" d2 B2 e4 | d2 GA Bc d2 | e3 f g2 d2 | %8
w: ||Al- ma be-|a- ta'e bel-||* la'e bel-||* * la, che|
 d2 d2 c2 f2 | e2 f4 e2 | d2 f2 e2 e2 | f2 f2 d2 e2 | f2 e3 d d2- | d2 c2 d4- | d2 d2 B4 | %15
w: da le- ga- mi|sciol- * *|ta nu- da sa-|li- sti ne su-|per- ni _ chi-|* o- stri,|_ o- ve|
 A2 d2 c2 A2 | B4 A2 f2 | e2 g2 d2 _e2 | d2 f4 f2 | d2 e4 f2 | e2 d2 f2 B2 | d3 c B2 c2 | A4 G4 | %23
w: con la tua stel-|* la ti|go- d'in- sie- me,|ac- col- ta,|ti go- d'in-|sie- m'ac- col- *||* ta|
 z2 f2 f2 f2 | d2 g2 f3 e | d2 e2 f2 d2- | dc d2 _e2 d2- |"^-natural" de f4 _e2 | d2 B2 c4 | %29
w: et lie- ta|vai scher- nen- do|i pen- sier no-||||
 B3 c d4 | _e6 d2 | c2 B3 A A2- | A2 G2 A2 B2 | A2 d2 d2 d2 | _e2 d3 c c2- | %35
w: * * stri,|qua- si'un|bel sol ti no-||stri, tra li piu|chia- ri _ spir-|
"^-natural" c2 B2 c2 e2 | e2 e2 f2 e2- | e2 f4 ed | e2 d4 cB | A2 B2 A2 G2- | G2 F2 B4 | %41
w: * * ti, et|co i ve- sti-|* gi- * *|i san- * *|||
 A2 f2 e2 d2 | e2 g2 f2 d2 | e4 d4 | z2 d2 e2 f2 | d2 e2 f2 _e2 | d2 g2 c2 d2- | dc/B/ c2 d2 f2 | %48
w: ti, chal- chi le|stel- l'er- ran- *|* ti,|et tra pu-|re fon- ta- ne,|et sa- cri mir-|* * * * ti, pa-|
 f2 f2 e2 f2 | d2 g4 f2 | g8 | z8 | d4 d2 d2 | c2 A2 A2 f2 | d2 e2 f4 | f2 f2 e2 f2- | %56
w: sci ce- le- sti|greg- gi- *|i,||et tuoi ca-|ri pa- sto- r'in-|di cor- reg-|gi- i, in- di|
 f2 ed e2 f2 | e2 d4 c2 | f4 e4 | d4 z2 c2 | c2 c2 B4 | c2 A3 B c2 | d2 G2 A4 | G8 |] %64
w: _ cor _ reg- gi-|i, cor- reg-|* gi-|i, in-|di cor- reg-||* * gi-|i.|
V:3
 z8 | z8 | z8 | z8 | z8 | z8 | B4 B2 B2 | A4 G4 | D3 E FGAB |"^-natural" cA d3 c/B/ c2 | %10
w: ||||||Al- ma be-|a- ta'e|bel- * * * * *||
 d2 A2 A2 A2 | D2 D2 G4 | F2 A2 G2 F2 |"^b" E4 D4 | z2 D2 G2 G2 | D2 B,2 F4 | G4 z2 A2- | %17
w: la nu- da sa-|li- sti ne|su- per- ni chi-|o- stri,|o- ve con|la tua stel-|la ti|
 A2 G4 C2 | G2 F2 D2 d2- | d2 c4 A2 | c2 B4 G2- | G2 ^F2 G2 C2 | D4 z2 d2 | d2 d2 A2 B2- | %24
w: _ go- do'in-|sie- * me, ti|_ go- do'in-|sie- * *|* ma ac- col-|ta, et|lie- ta vai scher-|
 B2 AG A2 B2- | B2 AG F2 B2 | B2 B2 G4 | D6 C2 | G4 F4 | z2 G2 G2 G2 | c6 B2 | A2 G2 F2 D2 | %32
w: * * * nen- *|* * * do i|pen- sier no-||* stri,|qua- si'un bel|sol ti|no- * * *|
 _E4 D2 D2 | D2 D2 G4- |"^-natural" G2 F2 E2 F2 | D4 C2 c2 | c2 c2 A3 B | c2 d3 c B2 | A2 B2 G4 | %39
w: * stri, tra|li piu chia-|* ri spi- *|* ti, et|co i ve- sti-|gi san- * *||
 F2 D4 B2 | A4 G4 | F2 D2 A2 B2 | A2 G2 d2 B2 | A4 D2 B2 | B2 B2 A2 F2 | G4 D2 G2 | G2 G2 F2 D2 | %47
w: * ti, san-||ti, chal- chi le|stel- l'er- ran- *|* ti, et|tra pu- re fon-|ta- ne, et|sa- cri mir- *|
 _E4 D3 E |"^-natural" FGAB c2 F2 | G2 _E2 D4 | G2 c2 c2 c2 | B2 G2 A4 | G4 D4 | F4 F2 F2 | %54
w: |||ti, pa- sci ce-|le- sti greg-|gi- i,|et i tuoi|
 G2 G2 D2 d2 | d2 d2 c2 A2 | B4 A4 | G2 F2 E2 F2 | DEFG AB c2- |"^#" c2 B2 G2 A2 | A2 A2 G4 | %61
w: ca- ri pa- sto-|r'in- di cor- reg-|gi- i,|cor- reg- * *||* gi- i, in-|di cor- reg-|
 C2 D2 F4 | D2 _E2 D4 | G8 |] %64
w: |* * gi-|i.|

